Numix/32/mimetypes/application-x-gnucash.svg

<?xml version="1.0" encoding="UTF-8" standalone="no"?>
<svg
   xmlns:dc="http://purl.org/dc/elements/1.1/"
   xmlns:cc="http://creativecommons.org/ns#"
   xmlns:rdf="http://www.w3.org/1999/02/22-rdf-syntax-ns#"
   xmlns:svg="http://www.w3.org/2000/svg"
   xmlns="http://www.w3.org/2000/svg"
   xmlns:sodipodi="http://sodipodi.sourceforge.net/DTD/sodipodi-0.dtd"
   xmlns:inkscape="http://www.inkscape.org/namespaces/inkscape"
   width="32"
   height="32"
   viewBox="0 0 32 32"
   id="svg2"
   version="1.1"
   inkscape:version="0.91 r13725"
   sodipodi:docname="application-gnucash_32.svg">
  <metadata
     id="metadata16">
    <rdf:RDF>
      <cc:Work
         rdf:about="">
        <dc:format>image/svg+xml</dc:format>
        <dc:type
           rdf:resource="http://purl.org/dc/dcmitype/StillImage" />
        <dc:title></dc:title>
      </cc:Work>
    </rdf:RDF>
  </metadata>
  <defs
     id="defs14">
    <clipPath
       id="clipPath-258929573">
      <g
         transform="translate(0,-1004.3622)"
         id="g17">
        <path
           inkscape:connector-curvature="0"
           d="m -24,13 c 0,1.105 -0.672,2 -1.5,2 -0.828,0 -1.5,-0.895 -1.5,-2 0,-1.105 0.672,-2 1.5,-2 0.828,0 1.5,0.895 1.5,2 z"
           transform="matrix(15.333333,0,0,11.5,414.99999,878.8622)"
           style="fill:#1890d0"
           id="path19" />
      </g>
    </clipPath>
  </defs>
  <sodipodi:namedview
     pagecolor="#ffffff"
     bordercolor="#666666"
     borderopacity="1"
     objecttolerance="10"
     gridtolerance="10"
     guidetolerance="10"
     inkscape:pageopacity="0"
     inkscape:pageshadow="2"
     inkscape:window-width="1920"
     inkscape:window-height="1013"
     id="namedview12"
     showgrid="false"
     inkscape:zoom="1"
     inkscape:cx="13.022832"
     inkscape:cy="13.066652"
     inkscape:window-x="0"
     inkscape:window-y="27"
     inkscape:window-maximized="1"
     inkscape:current-layer="svg2">
    <inkscape:grid
       type="xygrid"
       id="grid3004" />
  </sodipodi:namedview>
  <path
     style="fill:#55649b;fill-opacity:1"
     d="M 5.335888,2.97e-4 C 4.648414,3.12e-4 4,0.676788 4,1.394031 L 4,30.606268 C 4,31.282757 4.687474,32 5.335888,32 l 21.327332,0 c 0.648414,0 1.335888,-0.717243 1.335888,-1.393732 L 28,8.9999999 19,0 z"
     id="path4-1"
     inkscape:connector-curvature="0"
     sodipodi:nodetypes="ssssssccs" />
  <path
     style="fill:#000000;fill-opacity:0.19599998"
     d="M 21,8.9999999 28,16 28,8.9999999 z"
     id="path6-4"
     inkscape:connector-curvature="0"
     sodipodi:nodetypes="cccc" />
  <path
     style="fill:#ffffff;fill-opacity:0.39200003"
     d="m 19.000306,2.97e-4 8.991594,8.9997029 -7.613262,0 c -0.672951,0 -1.378332,-0.7134896 -1.378332,-1.3864402 z"
     id="path8-6"
     inkscape:connector-curvature="0"
     sodipodi:nodetypes="ccssc" />
  <path
     style="fill:#f9f9f9"
     d="M 10.000001,23 12,21 l 0,4 -1.999999,0 z M 13.000002,21 15,22.999999 15,25 13.000002,25 Z m 3.000002,4 0,-2.000001 L 18,21 18,25 Z M 19.000005,19.999997 21,18 l 0,7 -1.999995,0 z M 12.500002,19.5 9,23 9,21.5 12.500002,18 15.5,20.999998 20.5,15.5 19,14 l 4.000007,0 0,4 L 21.5,16.499996 l -6,6.000003 z"
     id="path4170"
     inkscape:connector-curvature="0"
     sodipodi:nodetypes="cccccccccccccccccccccccccccccccc" />
  <g
     transform="matrix(0.58950886,0,0,0.52505442,-1.4285822,-0.95834695)"
     style="font-style:normal;font-variant:normal;font-weight:normal;font-stretch:normal;font-size:11.09626293px;line-height:125%;font-family:'Ubuntu Mono';-inkscape-font-specification:'Ubuntu Mono, Normal';text-align:start;letter-spacing:0px;word-spacing:0px;writing-mode:lr-tb;text-anchor:start;fill:#f9f9f9;fill-opacity:1;stroke:none;stroke-width:1px;stroke-linecap:butt;stroke-linejoin:miter;stroke-opacity:1"
     id="text4166">
    <path
       d="m 27.868369,34.202822 -3.392771,0 0,-1.904566 5.937146,0 c 0.848164,0 0.848164,-0.952283 0.848164,-0.952283 0,0 0,-0.952282 -0.848159,-0.952282 l -5.088986,0 c -0.848165,0 -0.848164,-0.952283 -0.848164,-0.952283 l -2e-6,-3.809155 c 0,-0.501384 0.445318,-0.952283 0.876478,-0.944251 l 2.516143,-0.008 0,-1.904559 1.696398,0 0,1.904567 3.392626,-3.7e-5 0,1.904566 -5.937151,-3e-6 c -0.848164,2.4e-5 -0.848164,0.952307 -0.848164,0.952307 0,0 0,0.952282 0.848164,0.952282 0,0 4.379374,-0.01109 5.088988,6e-6 0,0 0.848164,0 0.848165,0.952274 l -1.16e-4,2.380707 1.16e-4,1.428424 c 0,0.527421 -0.384324,0.952283 -0.848164,0.952283 l -2.544499,1e-5 0,1.904604 -1.696328,0 z"
       style="font-style:normal;font-variant:normal;font-weight:bold;font-stretch:normal;font-size:15.67047405px;line-height:125%;font-family:'Ubuntu Mono';-inkscape-font-specification:'Ubuntu Mono, Bold';text-align:start;writing-mode:lr-tb;text-anchor:start;fill:#f9f9f9"
       id="path4231"
       inkscape:connector-curvature="0"
       sodipodi:nodetypes="ccccccsccccccccccccscccccccc" />
  </g>
</svg>

<svg xmlns="http://www.w3.org/2000/svg" viewBox="0 0 32 32">
 <defs>
  
 </defs>
 <path d="m 5.336 0 c -0.687 0 -1.336 0.676 -1.336 1.394 l 0 29.21 c 0 0.676 0.687 1.394 1.336 1.394 l 21.327 0 c 0.648 0 1.336 -0.717 1.336 -1.394 l 0.001 -21.606 -9 -9 z" style="fill:#55649b;fill-opacity:1"/>
 <path d="m 21 9 7 7 0 -7 z" style="fill:#000;fill-opacity:0.196"/>
 <path d="m 19 0 8.992 9 -7.613 0 c -0.673 0 -1.378 -0.713 -1.378 -1.386 z" style="fill:#fff;fill-opacity:0.392"/>
 <path d="m 10 23 2 -2 l 0 4 -2 0 z m 3 -2 2 2 0 2 -2 0 m 3 0 0 -2 l 2 -2 0 4 m 1 -5 2 -2 l 0 7 -2 0 z m -6.5 -0.5 -3.5 3.5 0 -1.5 3.5 -3.5 3 3 5 -5.5 -1.5 -1.5 l 4 0 0 4 l -1.5 -1.5 l -6 6 z" style="fill:#f9f9f9"/>
 <g transform="matrix(0.58950886,0,0,0.52505442,-1.4285822,-0.95834695)" style="fill:#f9f9f9;fill-opacity:1;stroke:none">
  <path d="m 27.868 34.2 -3.393 0 0 -1.905 5.937 0 c 0.848 0 0.848 -0.952 0.848 -0.952 0 0 0 -0.952 -0.848 -0.952 l -5.089 0 c -0.848 0 -0.848 -0.952 -0.848 -0.952 l 0 -3.809 c 0 -0.501 0.445 -0.952 0.876 -0.944 l 2.516 -0.008 0 -1.905 1.696 0 0 1.905 3.393 0 0 1.905 -5.937 0 c -0.848 0 -0.848 0.952 -0.848 0.952 0 0 0 0.952 0.848 0.952 0 0 4.379 -0.011 5.089 0 0 0 0.848 0 0.848 0.952 l 0 2.381 0 1.428 c 0 0.527 -0.384 0.952 -0.848 0.952 l -2.544 0 0 1.905 -1.696 0 z"/>
 </g>
</svg>
